!!!OTL: "Kommt her zu mir"! spricht Gottes Sohn. / Aelteste Notation von 1530.
!!!ARE: Europa, Mitteleuropa, Deutschland
!!!SCT: A0636B
!!!TXL: @@DE
!!!YEM: Copyright 1995, estate of Helmut Schaffrath.
**kern	**text
*M4/2	*
*met(c|)	*
*clefC3	*
*k[b-]	*
*g:	*
=1	=1
{1G	Kompt
2A	her
2G	ʒu
=2	=2
1.d	mir,
2c	ſpricht
=3	=3
2d	Got-
2B-	-tes
1A	Son,
=4||	=4||
2r}	.
{2A	all
2B-	die
2A	ihr
=5	=5
2B-	ſeid
2d	be-
2c	-ſchweret
2B-	.
=6	=6
1A	nun,
2r}	.
{2A	mit
=7	=7
2G	ſun-
2G	-den
*lig	*
2.c/	faſt
!LO:TX:a:t=*	!
4B-	.
=8	=8
2A	.
*Xlig	*
2B-	be-
1G	-la-
=9	=9
1F	-den,
1r}	.
=10||	=10||
{1A	Jr
2B-	Jungen,
2A	.
=11	=11
2B-	Al-
2d	-ten,
2c	Fraw
2B-	vnd
=12	=12
1A	Man,
2r}	.
{2A	ich
=13	=13
2B-	wil
2A	euch
2B-	ge-
2d	-ben
=14	=14
2c/	was
2B-	ich
1A	han,
=15	=15
1r}	.
{1c	und
=16	=16
2B-	hei-
2A	-len
2B-	ew-
2G	-ern
=17	=17
!LO:TX:a:t=**	!
1A	ſchaden.
1G/ll}	.
==	==
!!!GTL: Geistliche Volkslieder
!!!AGN: Romanze, Ballade, Lied, religioeses Lied
!! Einzeldruck von 1530.
!!!ONB: ESAC (Essen Associative Code) Database: ALTDEU
!!!AMT: simple quadruple
!!!AIN: vox
!!!EED: Helmut Schaffrath
!!!EEV: 1.0
!!@@COMMENT: "Das Original ist aus 4 Notenlinien gedruckt, die obere hier ist wegzudenken. 
!!Taktzeichen fehlt, so wie natürlich die von mir eingetragenen Taktstriche. 
!! Zwei Druckfehler darin sind: bei * hat das Orig. d statt des richtigen b, bei ** (vorletzte Note) f statt a."
!!@@END:
!!!RDF**kern: l = terminal long
!!!URL-scan: https://rosdok.uni-rostock.de/mcrviewer/recordIdentifier/rosdok_ppn738218359/iview2/phys_0817.iview2?x=105.19263581881364&y=1977.1761062736623&scale=0.7106933083589261&rotation=0&layout=singlePageLayout&logicalDiv=log_0007
!!!ENC: Anna Maria Matuszewska
!!!EEV: 2024/25/03
*-	*-
